X:37
T:Strathbogie Toast, The
T:Bobers of Brechin, The
T:Mr. George Gordon's
C:William Marshall
R:reel
S:1822 Collection p.11
B:Athole, (Lowes and Surrene as The Bobers of Brechin)
H:Mr. George Gordon's by Marshall (1786, McGlashan), The Bobers of Brechin by Marshall (Lowes 5th circa 1745). Miss grant's Reel (John Gow Collection)
Z:Paul Stewart Cranford (P.S.C.), <http://www.cranfordpub.com>
M:C|
L:1/8
Q:333
K:Gdor
dg (a/g/^f) g2 d=f|cdfg dfcf|dg (a/g/^f) g2 dg|f<dcA G2 GA|
dg (a/g/^f) g2 d=f|cdfg dfcf|dfga bag=f|d<fcA G2G||
||g|BGdG BGde|fdcf AFcA|BGdG BGdg|f<dcA G2 Gg|
BGdG BGde|fdcf AFcA|GABc defg|f<dcA G2 G2|]

% if none of this makes sense, go to http://www.cranfordpub.com/tunes/abcs
